X:1
T:Title
%%score { ( 1 3 ) | ( 2 4 ) }
L:1/8
M:3/4
K:A
V:1 treble nm="Grand Piano"
V:3 treble 
V:2 bass 
V:4 bass 
V:1
 z2 z2[Q:1/4=104] E2 | E2 [DF]2 [B,EG]2 | [A,A]2 z2 [Ec]2[K:bass] | c4 B2 | [CA]4 E2 | %5
 z2 F2 [B,EG]2 | E2- [EB]2 c2 | e2 d2 c2 | B4 [^EB]2 | [FB]4 z2 | [Fd]2 [FB]2 z D | A2 A2 [Ac]2 | %12
 [Ge]4 E2 | F6[K:bass] | G6 | [A,CA]6 |] %16
V:2
 z2 z2 E,2 | C,2 D,2 D,2 | C,2 [B,,G,]2 .[A,,A,]2 | [E,A,E]4 [E,G,D]2 | [A,,A,]4 [C,A,]2 | %5
 G,2 z2 z2 | C,2 [E,G,]2 [A,E]2 | [G,B,E]4 [A,E]2 | [E,G,E]4 [C,G,]2 | F,2 z2 z2 | %10
 [B,,B,]2 [E,G,]2 CB, | C2 z2 [F,A,]2 | [E,B,]4 [C,A,]2 | A,2 z2 z2 | D2 C2 B,2 | A,,6 |] %16
V:3
 x6 | A,4 z2 | E2- [Ed]2 z[K:bass] C, | x6 | x6 | E4 z2 | [A,A]2 z2 z2 | x6 | x6 | z2 G,2 [Fc]2 | %10
 z2 z2 E2 | x6 | x6 | z2[K:bass] G,2 F,2 | z2 E2 D2 | x6 |] %16
V:4
 x6 | x6 | x6 | x6 | x6 | E,2- [E,A,]2 D,2 | x6 | x6 | x6 | D,4 [C,^A,]2 | z2 z2 E,2 | [F,A,]4 z2 | %12
 x6 | [D,D]6 | E,6 | x6 |] %16

